/* 
PRIMITIVES

- Code generates shapes (graphical output)
- comment syntax (inline, block)
- cmd + R or ctrl + R to render

*/

startshape primitives

shape primitives
{
  SQUARE []
  // TRIANGLE []
  // CIRCLE []
}