/*
TRANSFORM

- Continuation of the previous file
- Shape adjustments 
  - position (x = horizontal, y = vertical)
  - rotation (in degrees, positive values = counter-clockwise)
    - long: rotate
    - short: r
- Kinds of of brackets
  - [] for shape adjustments
  - {} for functions
- Positive and negative values

*/

startshape primitives

shape primitives
{
  SQUARE [ y -1 ]
  TRIANGLE []
  CIRCLE [ y 1.2 ]
}

