/*
TWO SHAPES

- Continuation of the previous file

1: startshape: primitives
2: startshape: rozetta
3: change startshape to point 
   from one shape to the other

*/

startshape primitives

shape primitives
{
  SQUARE [ y -1 ]
  TRIANGLE []
  CIRCLE [ y 1.2 ]
}

shape rozetta
{
  primitives []
  primitives [ x 1 ]
  primitives [ x 2 ]
}


