// noise

// 1: draw row
// 2: fixed pixel brightness
// 3: random pixel brightness
// 4: draw grid


startshape row


shape pixel
{
  SQUARE []
  // shorthand brightness: b
}

shape row
{
  loop 50 [ x 1 ] pixel []
}

shape grid
{
  loop 30 [ y 1 ] row []
}