// rules


startshape Tree


// Another form of randomization: rules
// no weight = weight 1

shape Tree
rule 1      // reguar stem-section
{
 SQUARE []
 Tree [ y 1 s 0.99 r 1.5 ]
}


/*
rule 0.1   // change curve direction
{
 Tree [ flip 90 ]
}


rule 0.05   // spawn branches
{
 Tree [ s 0.99 r 1.5 flip 90 ]
 Tree [ x 0.5 s 0.6 r -60 ]
 Tree [ x -0.5 s 0.5 r 60 ]
}
*/


// grow branches only to the right or left side?