/*
COLOR

- HSB (Hue Saturation Brightness).
  Hue goes from 0 to 360 and then 
  loops through again if the values go over 360.

  0 = Red
 60 = Yellow
120 = Green
180 = Cyan
240 = Blue
300 = Magenta

*/

startshape colorwheel

shape swatch  
{
  SQUARE [ h 240 sat 1 b 1 ] // a blue square
}

// HSB makes it easy to loop through a spectrum of colors
shape colorwheel
{
  loop 360 [ h 1 x 1 r 1 ] swatch [ s 1 80 ]
}


