startshape rond

shape rond
{
  loop (36*2) [r 5] peer [y 6]
}

shape peer
rule {
  TRIANGLE[h 20..40 sat 1 b 1]
  peer[y .4 s rand(0.8,1.08) r 1..15 a -.09]
}
rule {
  TRIANGLE[h 20..40 sat 1 b 1]
  peer[y 0.4 s rand(0.8,1.08) r -1..-15 a -.05]
}